sourses/img/phone.svg

<svg width="24" height="24" viewBox="0 0 24 24" fill="none" xmlns="http://www.w3.org/2000/svg">
<g id="Icon/Outline/phone-call">
<path id="Mask" fill-rule="evenodd" clip-rule="evenodd" d="M17.4004 20C10.0114 20 4.00037 13.988 4.00037 6.6C4.00037 5.166 5.16637 4 6.60037 4C6.70937 4 6.81737 4.007 6.92737 4.021L7.98837 8.642C7.85707 8.71031 7.71655 8.7838 7.5795 8.85547L7.45037 8.923C6.58837 9.373 5.90837 9.729 6.26537 10.514C7.44137 13.86 10.1404 16.56 13.4464 17.72C14.2887 18.0575 14.6155 17.4325 15.0674 16.5684L15.0734 16.557C15.1253 16.4586 15.1788 16.356 15.2318 16.2543C15.2747 16.172 15.3172 16.0903 15.3584 16.012L19.9784 17.072C19.9934 17.18 20.0004 17.289 20.0004 17.4C20.0004 18.834 18.8344 20 17.4004 20ZM21.7514 15.908C21.6384 15.583 21.3664 15.339 21.0304 15.262L15.0664 13.893C14.7374 13.819 14.3934 13.912 14.1504 14.146C14.0074 14.282 14.0044 14.286 13.3544 15.527C11.2244 14.557 9.47937 12.818 8.47537 10.644C9.71437 9.995 9.71737 9.992 9.85437 9.85C10.0884 9.606 10.1824 9.262 10.1074 8.934L8.73837 2.97C8.66137 2.634 8.41637 2.361 8.09137 2.248C7.85337 2.166 7.60837 2.104 7.36637 2.065C7.11737 2.022 6.86037 2 6.60037 2C4.06337 2 2.00037 4.063 2.00037 6.6C2.00037 15.092 8.90837 22 17.4004 22C19.9364 22 22.0004 19.937 22.0004 17.4C22.0004 17.142 21.9774 16.887 21.9354 16.639C21.8954 16.389 21.8334 16.144 21.7514 15.908ZM13 8C14.654 8 16 9.346 16 11C16 11.553 16.447 12 17 12C17.553 12 18 11.553 18 11C18 8.243 15.757 6 13 6C12.448 6 12 6.447 12 7C12 7.553 12.448 8 13 8ZM20 11C20 7.141 16.859 4 13 4C12.448 4 12 3.553 12 3C12 2.447 12.448 2 13 2C17.963 2 22 6.037 22 11C22 11.553 21.553 12 21 12C20.447 12 20 11.553 20 11Z" fill="#D7A950"/>
</g>
</svg>

<svg width="24" height="24" fill="none" xmlns="http://www.w3.org/2000/svg"><path fill-rule="evenodd" clip-rule="evenodd" d="M17.4 20C10.011 20 4 13.988 4 6.6a2.602 2.602 0 012.927-2.579l1.061 4.621-.409.213-.129.068c-.862.45-1.542.806-1.185 1.591 1.176 3.346 3.875 6.046 7.181 7.206.843.338 1.17-.287 1.621-1.152l.006-.011.159-.303.126-.242 4.62 1.06A2.602 2.602 0 0117.4 20zm4.351-4.092a1 1 0 00-.72-.646l-5.965-1.369a1.001 1.001 0 00-.916.253c-.143.136-.146.14-.796 1.381a9.949 9.949 0 01-4.879-4.883c1.24-.649 1.242-.652 1.38-.794a1 1 0 00.252-.916L8.738 2.97a1.002 1.002 0 00-.647-.722 4.375 4.375 0 00-.725-.183A4.605 4.605 0 002 6.6C2 15.092 8.908 22 17.4 22c2.536 0 4.6-2.063 4.6-4.6 0-.258-.023-.513-.065-.761a4.299 4.299 0 00-.184-.731zM13 8c1.654 0 3 1.346 3 3a1 1 0 102 0c0-2.757-2.243-5-5-5a1 1 0 100 2zm7 3c0-3.859-3.141-7-7-7a1 1 0 110-2c4.963 0 9 4.037 9 9a1 1 0 11-2 0z" fill="#D7A950"/></svg>
